X: 132
M: 4/4
L: 1/4
K: Eb
[| BB BB | (B3c) B2 | FF EF | G4 | EG Be | e2 d2 |
cc G=A | B4 | FF BF | (G>A) G2 | BB eB | c4 |
cB AB | (cB) (AB) | cB AG | F4 |]| "^Chorus."EE EE (ED/C/) (DE) |


